assets/logos/icons/bitbot@3x.svg

<svg height="24" viewBox="0 0 24 24" width="24" xmlns="http://www.w3.org/2000/svg"><path d="m12 16c-1.1046085 0-2-.895481-2-2h4c0 1.104519-.895481 2-2 2zm-3.625-4c.75943841 0 1.375.6134225 1.375 1.37h-2.75c0-.7565775.61556159-1.37 1.375-1.37zm6.9981343 0c.758408 0 1.3731344.6148259 1.3731344 1.3731343h-2.7462687c0-.7583084.6147264-1.3731343 1.3731343-1.3731343zm-3.2240597-5.90047011c-.5522807 0-1-.44771929-1-1 0-.5522807.4477193-1.00011695 1-1.00011695s1 .44783625 1 1.00011695c0 .55228071-.4477193 1-1 1zm5.8786732 3.05619431c-1.6652122-.09549082-3.6854247-.1557242-6.0278871-.1557242-2.34257638 0-4.36291652.06023792-6.02790574.15573097-.44113117.02527028-.75289835.26703678-.82728248.55637467-.32094372 1.24775326-.60149994 2.52408896-.78787362 3.68826746-.14626256.9135359-.26633544 2.0090834-.35541675 3.252234-.01061286.1476691.04128161.2863315.17299591.4220112.16482272.1697574.40369934.2743248.68761303.28656 2.30442995.0991949 4.7468904.1615481 7.13786965.1615481 2.3908132 0 4.8333203-.0623538 7.137771-.1615439.2839848-.0122382.5227949-.1167803.6876173-.2865695.1317334-.1356764.1836063-.2742811.1729498-.422578-.0888803-1.2416744-.2089955-2.3373905-.3553887-3.2517426-.1861622-1.163048-.4666143-2.4390471-.7878006-3.68834-.0744061-.2891758-.3862183-.53095904-.8272617-.5562282zm2.7642522.05816413c.2492537.96949727.5948259 2.42809127.8256716 3.87029967.1562189.975722.2825871 2.1281156.3754229 3.4250505.0519403.7227977-.2084577 1.4184081-.7329353 1.958584-.5251741.5409998-1.2483582.8575442-2.0364179.8915055-1.7311443.0745133-4.3896517.1633984-7.2238806.1633984-2.83442786 0-5.49283582-.0888851-7.2238806-.1633984-.7880597-.0339613-1.51124378-.3505057-2.03651741-.8915055-.52447762-.5402674-.78487563-1.2358778-.73293533-1.958584.09293533-1.2969349.21920398-2.4493285.37542289-3.4250505.23104477-1.4432153.57651741-2.9012601.82577114-3.87029967.29701493-1.15532291 1.36189055-1.9811028 2.64985075-2.05488382 1.2640796-.07249947 3.3560199-.15900451 6.14228856-.15900451 2.7861692 0 4.8781094.08650504 6.1423881.15900451 1.2877612.07378102 2.3526368.89956091 2.6497512 2.05488382z" fill="#351d48" fill-rule="evenodd"/></svg>

<svg xmlns="http://www.w3.org/2000/svg" width="24" height="24" viewBox="0 0 24 24">
  <path fill="#351D48" fill-rule="evenodd" d="M12,16 C10.8953915,16 10,15.104519 10,14 L14,14 C14,15.104519 13.104519,16 12,16 Z M8.375,12 C9.13443841,12 9.75,12.6134225 9.75,13.37 L7,13.37 C7,12.6134225 7.61556159,12 8.375,12 Z M15.3731343,12 C16.1315423,12 16.7462687,12.6148259 16.7462687,13.3731343 L14,13.3731343 C14,12.6148259 14.6147264,12 15.3731343,12 Z M12.1490746,6.09952989 C11.5967939,6.09952989 11.1490746,5.6518106 11.1490746,5.09952989 C11.1490746,4.54724919 11.5967939,4.09941294 12.1490746,4.09941294 C12.7013553,4.09941294 13.1490746,4.54724919 13.1490746,5.09952989 C13.1490746,5.6518106 12.7013553,6.09952989 12.1490746,6.09952989 Z M18.0277478,9.1557242 C16.3625356,9.06023338 14.3423231,9 11.9998607,9 C9.65728432,9 7.63694418,9.06023792 5.97195496,9.15573097 C5.53082379,9.18100125 5.21905661,9.42276775 5.14467248,9.71210564 C4.82372876,10.9598589 4.54317254,12.2361946 4.35679886,13.4003731 C4.2105363,14.313909 4.09046342,15.4094565 4.00138211,16.6526071 C3.99076925,16.8002762 4.04266372,16.9389386 4.17437802,17.0746183 C4.33920074,17.2443757 4.57807736,17.3489431 4.86199105,17.3611783 C7.166421,17.4603732 9.60888145,17.5227264 11.9998607,17.5227264 C14.3906739,17.5227264 16.833181,17.4603726 19.1376317,17.3611825 C19.4216165,17.3489443 19.6604266,17.2444022 19.825249,17.074613 C19.9569824,16.9389366 20.0088553,16.8003319 19.9981988,16.652035 C19.9093185,15.4103606 19.7892033,14.3146445 19.6428101,13.4002924 C19.4566479,12.2372444 19.1761958,10.9612453 18.8550095,9.7119524 C18.7806034,9.4227766 18.4687912,9.18099336 18.0277478,9.1557242 Z M20.792,9.21388833 C21.0412537,10.1833856 21.3868259,11.6419796 21.6176716,13.084188 C21.7738905,14.05991 21.9002587,15.2123036 21.9930945,16.5092385 C22.0450348,17.2320362 21.7846368,17.9276466 21.2601592,18.4678225 C20.7349851,19.0088223 20.011801,19.3253667 19.2237413,19.359328 C17.492597,19.4338413 14.8340896,19.5227264 11.9998607,19.5227264 C9.16543284,19.5227264 6.50702488,19.4338413 4.7759801,19.359328 C3.9879204,19.3253667 3.26473632,19.0088223 2.73946269,18.4678225 C2.21498507,17.9275551 1.95458706,17.2319447 2.00652736,16.5092385 C2.09946269,15.2123036 2.22573134,14.05991 2.38195025,13.084188 C2.61299502,11.6409727 2.95846766,10.1829279 3.20772139,9.21388833 C3.50473632,8.05856542 4.56961194,7.23278553 5.85757214,7.15900451 C7.12165174,7.08650504 9.21359204,7 11.9998607,7 C14.7860299,7 16.8779701,7.08650504 18.1422488,7.15900451 C19.43001,7.23278553 20.4948856,8.05856542 20.792,9.21388833 Z"/>
</svg>
